X: 1
T: Growling Old Man and Grumbling Old Woman
C: French Canadian
M: C|
L: 1/8
R: reel
K: Am
A,B, |\
"Am"CA,[A,E]A, CA,[A,E]A, | "G"B,G,[G,D]G, B,G,[G,D]G, |\
"Am"CA,[A,E]A, CA,[A,E]A, |1 "G"B,G,[G,D]G, "Am"A,2 :|2 "G"B,G,[G,D][B,D] "Am"[A,2E2] |]
|: ^cd |\
"A"e^fed ^cdef | "G"(3g^fed=c BGGB | "A"e^fed ^cAcd | eaa^g a2e^f |
"A"=g^fed ^cdef | "G"ged=c BGGB | "Am"c2(3BcB AGED | "G"BEDB, "Am"A,2 :|
%P: Alternate A
%[A,2E2][A,E][A,E] [CE][A,E][A,E][A,E] | [G,2D2][G,D][G,D] [B,D][G,D][G,D][G,D] |\
%[A,2E2][A,E][A,E] [CE][A,E][A,E][A,E] | [B,D][A,E][G,2D2] [A,4E4] :|
% 9/1/98. Formerly W-22

